assets/bank-tab/Asset/Forex Card.svg

<svg width="24" height="24" viewBox="0 0 24 24" fill="none" xmlns="http://www.w3.org/2000/svg">
<g clip-path="url(#clip0_5371_1123)">
<path d="M18.4999 11C21.5375 11 23.9999 13.4625 23.9999 16.5C23.9999 19.5376 21.5375 22 18.4999 22C15.4624 22 13 19.5375 12.9999 16.5C13 13.4625 15.4624 11.0001 18.4999 11ZM18.4989 13C16.5664 13.0006 14.9999 14.5674 14.9999 16.5C14.9999 18.433 16.567 20 18.4999 20C20.4329 20 21.9999 18.433 21.9999 16.5C21.9999 14.5671 20.4328 13.0002 18.4999 13H18.4989ZM17.038 17.958C17.1713 17.9581 17.2871 18.0493 17.3261 18.1768C17.3825 18.3612 17.4507 18.5455 17.5331 18.7285C17.6399 18.9657 17.439 19.2297 17.206 19.1143C16.8425 18.934 16.5217 18.6801 16.2636 18.3721C16.1194 18.1999 16.2548 17.9581 16.4794 17.958H17.038ZM20.5204 17.958C20.7451 17.958 20.8805 18.1999 20.7363 18.3721C20.4786 18.6796 20.1586 18.933 19.7958 19.1133C19.564 19.2284 19.3598 18.966 19.4628 18.7285C19.5375 18.5565 19.606 18.3723 19.665 18.1768C19.7035 18.0491 19.8197 17.9581 19.9531 17.958H20.5204ZM18.7343 17.958C18.9284 17.958 19.0686 18.1451 18.9989 18.3262C18.9161 18.5415 18.8212 18.7361 18.7226 18.9082C18.6243 19.0798 18.3863 19.0801 18.2851 18.9102C18.1705 18.7177 18.0745 18.5225 17.996 18.3262C17.9241 18.1456 18.0643 17.9581 18.2587 17.958H18.7343ZM16.8671 15.625C17.0503 15.625 17.1882 15.7921 17.164 15.9737C17.1617 15.9912 17.1593 16.0088 17.1572 16.0264C17.1163 16.3557 17.1017 16.6975 17.123 17.0449C17.1337 17.2202 16.9987 17.3749 16.8232 17.375H15.9306C15.8034 17.3749 15.6893 17.2927 15.6601 17.169C15.6097 16.9543 15.5829 16.7301 15.5829 16.5C15.5829 16.27 15.6097 16.0458 15.6601 15.8311C15.6893 15.7073 15.8034 15.6252 15.9306 15.625H16.8671ZM18.956 15.625C19.0938 15.625 19.2138 15.7215 19.2363 15.8574C19.3109 16.3102 19.3192 16.7352 19.2812 17.126C19.2672 17.2695 19.1431 17.375 18.9989 17.375H17.995C17.8501 17.375 17.7263 17.2684 17.7138 17.124C17.6836 16.7759 17.694 16.4317 17.7353 16.0987C17.7453 16.0176 17.7579 15.937 17.7714 15.8574C17.7944 15.7217 17.914 15.6251 18.0517 15.625H18.956ZM21.0693 15.625C21.1964 15.6252 21.3106 15.7073 21.3398 15.8311C21.3901 16.0458 21.4169 16.27 21.4169 16.5C21.4169 16.7301 21.3901 16.9543 21.3398 17.169C21.3106 17.2927 21.1964 17.3749 21.0693 17.375H20.1728C19.9962 17.3749 19.8604 17.2191 19.873 17.043C19.8971 16.7052 19.8901 16.3473 19.8427 15.9727C19.8199 15.7914 19.9578 15.6251 20.1406 15.625H21.0693ZM21.1093 7.48538C21.7436 7.48538 22.0616 7.48504 22.2665 7.68557C22.4713 7.8861 22.4776 8.19566 22.4911 8.8135C22.5037 9.39999 21.8497 9.76254 21.3056 9.54299C20.4389 9.19316 19.4919 9.00002 18.4999 9.00002C14.3578 9.00006 11 12.3579 10.9999 16.5C10.9999 16.7704 10.7869 16.9992 10.5165 16.9971C8.3074 16.9785 6.06731 16.8717 3.5136 16.6758C2.06412 16.5646 1.33912 16.5083 0.849536 16.0225C0.360194 15.5366 0.299689 14.8252 0.179614 13.4024C0.0424434 11.777 -0.0174676 10.3188 0.00383279 8.82815C0.01277 8.20305 0.0174618 7.88993 0.222583 7.68752C0.427897 7.48512 0.748634 7.48538 1.3886 7.48538H21.1093ZM17.3466 13.8203C17.5739 13.7224 17.7659 13.9695 17.6669 14.1963C17.58 14.3955 17.4974 14.6082 17.4247 14.8321C17.3846 14.9555 17.2714 15.042 17.1415 15.042H16.4794C16.2548 15.042 16.1194 14.8001 16.2636 14.628C16.5546 14.2807 16.9248 14.0021 17.3466 13.8203ZM18.2616 14.2949C18.3566 14.0905 18.6348 14.0899 18.7323 14.293C18.7922 14.4177 18.847 14.5411 18.8964 14.6631C18.9709 14.8472 18.8303 15.042 18.6318 15.042H18.37C18.1726 15.042 18.0317 14.8491 18.1034 14.6651C18.1537 14.5361 18.207 14.4125 18.2616 14.2949ZM19.6435 13.8164C20.0692 13.9981 20.4431 14.2782 20.7363 14.628C20.8805 14.8001 20.7451 15.042 20.5204 15.042H19.8642C19.7351 15.0418 19.6219 14.9564 19.581 14.834C19.5108 14.6236 19.4273 14.4089 19.329 14.1914C19.2274 13.9661 19.4161 13.7197 19.6435 13.8164ZM3.4345 11.4551C2.88643 11.4552 2.44231 11.9002 2.44231 12.4483C2.44259 12.9961 2.8866 13.4403 3.4345 13.4405H5.34661C5.89459 13.4405 6.33949 12.9962 6.33977 12.4483C6.33977 11.9001 5.89476 11.4551 5.34661 11.4551H3.4345ZM3.53215 2.29006C9.17029 1.90301 13.2821 1.90313 18.9267 2.29202C20.3709 2.39152 21.0933 2.44128 21.5859 2.91995C21.8505 3.17713 21.9924 3.49993 22.0888 3.96194C22.2304 4.64068 22.3015 4.9807 22.0907 5.24026C21.8797 5.4998 21.4974 5.50002 20.7333 5.50002H1.70598C0.95121 5.50002 0.574147 5.49957 0.363208 5.24319C0.152345 4.98677 0.217697 4.65147 0.349536 3.98049C0.44108 3.51463 0.581609 3.18882 0.846606 2.92776C1.34121 2.44075 2.07165 2.39033 3.53215 2.29006Z" fill="#785103"/>
</g>
<defs>
<clipPath id="clip0_5371_1123">
<rect width="24" height="24" fill="white"/>
</clipPath>
</defs>
</svg>

<svg xmlns="http://www.w3.org/2000/svg" width="24" height="24" fill="none" viewBox="0 0 24 24"><g clip-path="url(#a)"><path fill="#785103" d="M18.5 11a5.5 5.5 0 1 1 0 11 5.5 5.5 0 0 1 0-11m-.001 2a3.5 3.5 0 1 0 0 7 3.5 3.5 0 0 0 0-7m-1.461 4.958c.133 0 .25.091.288.219q.084.277.207.552c.107.237-.094.5-.327.385a2.9 2.9 0 0 1-.942-.742c-.145-.172-.01-.414.215-.414zm3.482 0c.225 0 .36.242.216.414a2.9 2.9 0 0 1-.94.741c-.232.115-.436-.147-.333-.384q.113-.259.202-.552a.3.3 0 0 1 .288-.219zm-1.786 0c.194 0 .335.187.265.368-.083.215-.178.41-.276.582a.25.25 0 0 1-.438.002 4 4 0 0 1-.289-.584c-.072-.18.068-.368.263-.368zm-1.867-2.333c.183 0 .321.167.297.349l-.007.052c-.04.33-.055.672-.034 1.019a.307.307 0 0 1-.3.33h-.892a.274.274 0 0 1-.27-.206 2.9 2.9 0 0 1 0-1.338.274.274 0 0 1 .27-.206zm2.089 0c.138 0 .258.097.28.232.075.453.083.878.045 1.269a.28.28 0 0 1-.282.249h-1.004a.28.28 0 0 1-.281-.251 5 5 0 0 1 .057-1.267.28.28 0 0 1 .28-.232zm2.113 0c.127 0 .242.082.27.206a2.9 2.9 0 0 1 0 1.338.274.274 0 0 1-.27.206h-.896a.307.307 0 0 1-.3-.332 5.4 5.4 0 0 0-.03-1.07.306.306 0 0 1 .298-.348zm.04-8.14c.635 0 .953 0 1.157.2.205.201.212.51.225 1.128.013.587-.641.95-1.185.73A7.5 7.5 0 0 0 11 16.5c0 .27-.213.5-.483.497-2.21-.018-4.45-.125-7.003-.321-1.45-.111-2.175-.168-2.664-.653-.49-.486-.55-1.198-.67-2.62a46 46 0 0 1-.176-4.575c.009-.625.013-.938.219-1.14.205-.203.526-.203 1.166-.203zm-3.762 6.335c.227-.098.419.15.32.376q-.132.3-.242.636a.3.3 0 0 1-.284.21h-.662c-.224 0-.36-.242-.215-.414a2.9 2.9 0 0 1 1.083-.808m.915.475a.258.258 0 0 1 .47-.002q.09.187.164.37a.278.278 0 0 1-.264.379h-.262a.28.28 0 0 1-.267-.377q.076-.193.159-.37m1.381-.479c.426.182.8.462 1.093.812.145.172.01.414-.216.414h-.656a.3.3 0 0 1-.283-.208 7 7 0 0 0-.252-.643c-.102-.225.087-.471.314-.375m-16.208-2.36a.993.993 0 0 0 0 1.985h1.912a.993.993 0 0 0 0-1.986zm.097-9.166c5.638-.387 9.75-.387 15.395.002 1.444.1 2.166.15 2.659.628.265.257.406.58.503 1.042.141.679.213 1.019.002 1.278s-.594.26-1.358.26H1.706c-.755 0-1.132 0-1.343-.257C.153 4.987.218 4.651.35 3.98c.091-.465.232-.791.497-1.052.494-.487 1.225-.538 2.685-.638"/></g><defs><clipPath id="a"><path fill="#fff" d="M0 0h24v24H0z"/></clipPath></defs></svg>
